src/pos-icons/alpha-q-circle.svg

<svg height="24" viewBox="0 0 24 24" width="24" xmlns="http://www.w3.org/2000/svg"><path d="m12 2a10 10 0 0 1 10 10 10 10 0 0 1 -10 10 10 10 0 0 1 -10-10 10 10 0 0 1 10-10m-1 5a2 2 0 0 0 -2 2v6a2 2 0 0 0 2 2v2h2v-2a2 2 0 0 0 2-2v-6a2 2 0 0 0 -2-2zm0 2h2v6h-2z"/></svg>

<?xml version="1.0" encoding="UTF-8"?><!DOCTYPE svg PUBLIC "-//W3C//DTD SVG 1.1//EN" "http://www.w3.org/Graphics/SVG/1.1/DTD/svg11.dtd"><svg xmlns="http://www.w3.org/2000/svg" xmlns:xlink="http://www.w3.org/1999/xlink" version="1.1" id="mdi-alpha-q-circle" width="24" height="24" viewBox="0 0 24 24"><path d="M12,2A10,10 0 0,1 22,12A10,10 0 0,1 12,22A10,10 0 0,1 2,12A10,10 0 0,1 12,2M11,7A2,2 0 0,0 9,9V15A2,2 0 0,0 11,17V19H13V17A2,2 0 0,0 15,15V9A2,2 0 0,0 13,7H11M11,9H13V15H11V9Z" /></svg>
